X:1
T:RVW2/1/121 Our Saviour's Love
T:RVW2/1/121 Our Saviour's Love
T:(The Black Decree)
T:Transcribed by Simon Furey and Lewis Jones Mr. Hirons, near Weobley, July 27th 1908(?) [2 of 4]
C:Transcribed by Simon Furey and Lewis Jones
C:Mr. Hirons, near Weobley, July 27th 1908(?) [2 of 4]
L:1/8
Q:1/4=80
M:3/4
K:F
V:1 treble 
V:1
"^(Editorial suggestion)" d2 |"^(a)" c A/G/ F3 G |[M:2/4]"^(b)" A/B/c AF |[M:3/4] G4 C2 | %4
 FG/A/ c3 d |[M:2/4] cABG |[M:3/4] A4 !fermata!d2 |"^(c)" cA/G/ F3 G |[M:2/4] AcAF |[M:3/4] G4 C2 | %10
 FG/A/ c3 d |[M:2/4] cABG |[M:3/4] F4 || d2 |"^(a) var." cA F3 G |[M:2/4]"^(b) var." Ac AF | %16
[M:3/4] G4 C2 | FG/A/ c3 d |[M:2/4] cABG |[M:3/4] A4 !fermata!d2 |"^(c) var." cA F3 G | %21
[M:2/4] AcAF |[M:3/4] G4 C2 | FG/A/ c3 d |[M:2/4] cABG |[M:3/4] F4 |] %26

